X: 1857
T: Sıralı Dağların Karı
C: Salih Turhan
O: Turkey
F: http://compmusic.upf.edu/node/140
N: gerdaniye--turku--kapali_curcuna--sirali_daglarin--salih_turhan
N: makam= gerdaniye
N: form= turku
N: usul= kapali_curcuna = 10/8
M: 10/8
L: 1/16
K: C _2/4B ^3/4f  
Q: 1/4=360
%%MIDI tuningsystem comma53
z4 g2g4g4g6  | g4 f2e4f4g6  | z4 g2g4g2 a2f4e2  | \
w:  Sı ra lı  dağ  |  la rın  *  ka rı    |  Yi tir mi *  şem   | 
f2g2 e2e2 d2e2 =f2d6  | 
w:  naz *  *  lı  *  yâ *  ri    | 
z4 g2g4g4g6  | g4 f2e4f4g6  | z4 g2g4g2 a2{g}f4e2  | \
w:  Yâ rim  se ni   |  yi ti *  re li    |  Din mez  gö *  *  nül   | 
f2g2 e4 d2e2 =f2d6  | 
w:  â *  hu *  zâ *  rı    | 
z4 g2g4g4g6  | g4 f2e4f4g6  | z4 g2g4g2 a2{g}f4e2  | \
w:  Yâ rim  se ni   |  yi ti *  re li    |  Din mez  gö *  *  nül   | 
f2g2 e4 d2e2 =f2d4c2  | 
w:  â *  hu *  zâ *  rı    | 
e6e4e4e4d2  | e2=f2 {e}d4 c2d2 e2{d}c4B2  | \
w:  *  Ya zı ğın   |  gel *  *  sin  *  ba *  *  na    | 
z4 z2d4d4d4c2  | d2e2 c4 B2c2 d2{c}B4A2  | 
w:  Kur ban_ o  |  la *  yım  *  sa *  *  na    | 
z4 z2c4c4c4B2  | c2d2 B4 A2A2 c2c2 A4  | \
w:  Hay ran_ o  |  la *  yım  *  sa *  na    | 
A6A4A4e6  | e6e4e4e4d2  | 
w:  vah  vah  de  yâr    |  *  Ya zı ğın   | 
e2=f2 {e}d4 c2d2 e2{d}c4B2  | z4 z2d4d4d4c2  | \
w:  gel *  *  sin  *  ba *  *  na    |  Kur ban_ o  | 
d2e2 c4 B2c2 d2{c}B4A2  | 
w:  la *  yım  *  sa *  *  na    | 
z4 z2c4c4c4B2  | c2d2 B4 A2A2 c2c2 A4  | A16-A4  | \
w:  Hay ran_ o  |  la *  yım  *  sa *  na    |  yâr    | 
z4 g2g4g4g6  | 
w:  Sı ra lı  dağ  | 
g4 f2e4f4g6  | z4 g2g4g2 a2f4e2  | f2g2 e2e2 d2e2 =f2d6  | \
w:  la rın  *  ka rı    |  Yi tir mi *  şem   |  naz *  *  lı  *  yâ *  ri    | 
z4 g2g4g4g6  | 
w:  Yâ rim  se ni   | 
g4 f2e4f4g6  | z4 g2g4g2 a2{g}f4e2  | \
w:  yi ti *  re li    |  Din mez  gö *  *  nül   | 
f2g2 e4 d2e2 =f2d6  | z4 g2g4g4g6  | 
w:  â *  hu *  zâ *  rı    |  Yâ rim  se ni   | 
g4 f2e4f4g6  | z4 g2g4g2 a2{g}f4e2  | \
w:  yi ti *  re li    |  Din mez  gö *  *  nül   | 
f2g2 e4 d2e2 =f2d4c2  | e6e4e4e4d2  | 
w:  â *  hu *  zâ *  rı    |  *  Ya zı ğın   | 
e2=f2 {e}d4 c2d2 e2{d}c4B2  | z4 z2d4d4d4c2  | \
w:  gel *  *  sin  *  ba *  *  na    |  Kur ban_ o  | 
d2e2 c4 B2c2 d2{c}B4A2  | 
w:  la *  yım  *  sa *  *  na    | 
z4 z2c4c4c4B2  | c2d2 B4 A2A2 c2c2 A4  | \
w:  Hay ran_ o  |  la *  yım  *  sa *  na    | 
A6A4A4e6  | e6e4e4e4d2  | 
w:  vah  vah  de  yâr    |  *  Ya zı ğın   | 
e2=f2 {e}d4 c2d2 e2{d}c4B2  | z4 z2d4d4d4c2  | \
w:  gel *  *  sin  *  ba *  *  na    |  Kur ban_ o  | 
d2e2 c4 B2c2 d2{c}B4A2  | 
w:  la *  yım  *  sa *  *  na    | 
z4 z2c4c4c4B2  | c2d2 B4 A2A2 c2c2 A4  | A16-A4  | |


